assets/images/svg/volume.svg

<svg width="12" height="11" viewBox="0 0 12 11" fill="none" xmlns="http://www.w3.org/2000/svg">
<g clip-path="url(#clip0)">
<path d="M6.72561 1.02103C6.60323 0.966825 6.45906 0.981192 6.35356 1.06021L2.93273 3.60127H1.29827C0.910751 3.60127 0.594971 3.8945 0.594971 4.25433V6.86658C0.594971 7.22707 0.910751 7.51964 1.29827 7.51964H2.93273L6.35286 10.0607C6.41686 10.1077 6.49493 10.1319 6.57299 10.1319C6.62504 10.1319 6.67708 10.1208 6.72561 10.0992C6.84728 10.045 6.92464 9.93074 6.92464 9.80536V1.31556C6.92464 1.19017 6.84728 1.07589 6.72561 1.02103Z" fill="#9E9E9E"/>
<path d="M8.70489 3.25144C8.56634 3.12474 8.3441 3.1267 8.20766 3.25405C8.07122 3.3827 8.07262 3.58907 8.21047 3.71642C8.74216 4.2036 9.03474 4.85862 9.03474 5.56066C9.03474 6.2627 8.74216 6.91772 8.21047 7.40491C8.07262 7.53095 8.07122 7.73797 8.20766 7.86662C8.27658 7.93127 8.36731 7.96327 8.45733 7.96327C8.54665 7.96327 8.63597 7.93193 8.70489 7.86858C9.37162 7.25927 9.73803 6.43903 9.73803 5.56066C9.73803 4.68229 9.37162 3.86205 8.70489 3.25144Z" fill="#9E9E9E"/>
<path d="M9.69713 2.33123C9.55858 2.20388 9.33634 2.20519 9.1992 2.33319C9.06276 2.46119 9.06417 2.66821 9.20131 2.7949C10.001 3.5309 10.4412 4.51311 10.4412 5.56062C10.4412 6.60813 10.001 7.58968 9.20131 8.32568C9.06417 8.45302 9.06276 8.66005 9.1992 8.78805C9.26882 8.85205 9.35885 8.88405 9.44887 8.88405C9.53819 8.88405 9.62821 8.8527 9.69713 8.78935C10.6311 7.93058 11.1445 6.7838 11.1445 5.56062C11.1445 4.33743 10.6311 3.19066 9.69713 2.33123Z" fill="#9E9E9E"/>
</g>
<defs>
<clipPath id="clip0">
<rect width="10.5495" height="9.79592" fill="white" transform="translate(0.594971 0.662476)"/>
</clipPath>
</defs>
</svg>

<svg width="12" height="11" fill="none" xmlns="http://www.w3.org/2000/svg"><g clip-path="url(#clip0)" fill="#9E9E9E"><path d="M6.726 1.021a.373.373 0 00-.372.04L2.933 3.6H1.298c-.387 0-.703.293-.703.653v2.613c0 .36.316.653.703.653h1.635l3.42 2.54a.373.373 0 00.373.04.325.325 0 00.199-.295v-8.49a.326.326 0 00-.2-.294zm1.979 2.23a.372.372 0 00-.497.003.311.311 0 00.002.462 2.48 2.48 0 01.825 1.845 2.48 2.48 0 01-.825 1.844.31.31 0 00-.002.462c.069.064.16.096.25.096a.365.365 0 00.247-.094A3.101 3.101 0 009.738 5.56c0-.879-.366-1.699-1.033-2.31z"/><path d="M9.697 2.331a.372.372 0 00-.498.002.311.311 0 00.002.462c.8.736 1.24 1.718 1.24 2.766 0 1.047-.44 2.029-1.24 2.765a.312.312 0 00-.002.462c.07.064.16.096.25.096s.18-.031.248-.095c.934-.858 1.448-2.005 1.448-3.228 0-1.224-.514-2.37-1.448-3.23z"/></g><defs><clipPath id="clip0"><path fill="#fff" transform="translate(.595 .662)" d="M0 0h10.55v9.796H0z"/></clipPath></defs></svg>
